svg/pinterest.svg

<svg xmlns="http://www.w3.org/2000/svg" viewBox="0 0 24 24"><path d="M9.04 21.54c.96.29 1.93.46 2.96.46a10 10 0 0 0 10-10A10 10 0 0 0 12 2 10 10 0 0 0 2 12c0 4.25 2.67 7.9 6.44 9.34-.09-.78-.18-2.07 0-2.96l1.15-4.94s-.29-.58-.29-1.5c0-1.38.86-2.41 1.84-2.41.86 0 1.26.63 1.26 1.44 0 .86-.57 2.09-.86 3.27-.17.98.52 1.84 1.52 1.84 1.78 0 3.16-1.9 3.16-4.58 0-2.4-1.72-4.04-4.19-4.04-2.82 0-4.48 2.1-4.48 4.31 0 .86.28 1.73.74 2.3.09.06.09.14.06.29l-.29 1.09c0 .17-.11.23-.28.11-1.28-.56-2.02-2.38-2.02-3.85 0-3.16 2.24-6.03 6.56-6.03 3.44 0 6.12 2.47 6.12 5.75 0 3.44-2.13 6.2-5.18 6.2-.97 0-1.92-.52-2.26-1.13l-.67 2.37c-.23.86-.86 2.01-1.29 2.7z"/></svg>

<?xml version="1.0" encoding="UTF-8"?><!DOCTYPE svg PUBLIC "-//W3C//DTD SVG 1.1//EN" "http://www.w3.org/Graphics/SVG/1.1/DTD/svg11.dtd"><svg xmlns="http://www.w3.org/2000/svg" xmlns:xlink="http://www.w3.org/1999/xlink" version="1.1" id="mdi-pinterest" width="24" height="24" viewBox="0 0 24 24"><path d="M9.04,21.54C10,21.83 10.97,22 12,22A10,10 0 0,0 22,12A10,10 0 0,0 12,2A10,10 0 0,0 2,12C2,16.25 4.67,19.9 8.44,21.34C8.35,20.56 8.26,19.27 8.44,18.38L9.59,13.44C9.59,13.44 9.3,12.86 9.3,11.94C9.3,10.56 10.16,9.53 11.14,9.53C12,9.53 12.4,10.16 12.4,10.97C12.4,11.83 11.83,13.06 11.54,14.24C11.37,15.22 12.06,16.08 13.06,16.08C14.84,16.08 16.22,14.18 16.22,11.5C16.22,9.1 14.5,7.46 12.03,7.46C9.21,7.46 7.55,9.56 7.55,11.77C7.55,12.63 7.83,13.5 8.29,14.07C8.38,14.13 8.38,14.21 8.35,14.36L8.06,15.45C8.06,15.62 7.95,15.68 7.78,15.56C6.5,15 5.76,13.18 5.76,11.71C5.76,8.55 8,5.68 12.32,5.68C15.76,5.68 18.44,8.15 18.44,11.43C18.44,14.87 16.31,17.63 13.26,17.63C12.29,17.63 11.34,17.11 11,16.5L10.33,18.87C10.1,19.73 9.47,20.88 9.04,21.57V21.54Z" /></svg>
